X:1
T:Zwölf Gesänge
T:An Maria (aus Novalis geistlichen Liedern)
T:11. An Maria (aus Novalis geistlichen Liedern)
T:Louise Reichardt
T:Novalis (Georg Friedrich Freiherr von Hardenberg)
T:Zwölf Gesänge, Op.3
T:OpenScore (CC0)
C:Louise Reichardt
Z:Novalis (Georg Friedrich Freiherr von Hardenberg)
Z:OpenScore (CC0)
%%score 1 { 2 | ( 3 4 ) }
L:1/8
Q:1/4=70
M:4/4
K:Eb
V:1 treble nm="Voice"
V:2 treble nm="Piano"
V:3 bass 
V:4 bass 
V:1
"^Sehr langsam und innig." G G A | B3 B B3 E | E2 D2 z A F E | (E2 D) c (c2 B) A |{A} G4 z G G =A | %5
w: Ich se- he|dich in tau- send|Bil- dern, Ma- ri- a|lieb- * lich aus * ge-|drück, doch keins von|
 B3 B =B3 B | d2 c2 z c d e | F3 F (F2 !turn!G) =A | B4 z2 B2 | _d3 B G A B _D | _D2 C2 z2 c2 | %11
w: al- len kann dich|schil- dern, wie mei- ne|See- le dich * er-|blickt. Ich|weiss nur das der Welt Ge-|tüm- mel, seit|
 c2 c2 c3/2 c/ (B/A/) (G/F/) | (_E2 D2) z F G A | B3 B (Bcd) e | (e>F) F3 F A c | B3 B B3 D | %16
w: dem mir wie ein Traum * ver- *|weht, * und ein un-|nenn- bar süs- * * ser|Him- * mel mir e- wig|im Ge- mü- the|
 E4 z |] %17
w: steht.|
V:2
 z2 z | z8 | z8 | z8 | z8 | DFBF F_A=BA | EGcG EGcG | DFBF CE=AE | DFBF DFBF | _DGBG DGBG | %10
 CEAE C=EBE | CFAF CFAF | DFAF DFAF | B,EBE B,EBE | CFAF CFAF | B,EGE A,DFD | G,/B,/E/B,/ G,2 z |] %17
V:3
 z2 z | [E,,E,]4 [E,,E,]4 | [B,,,B,,]4 [B,,,B,,]4 | [B,,,B,,]4 [B,,,B,,]4 | [E,,E,]4 [E,,E,]4 | %5
 D,4 D,4 | E,4 C,4 | F,4 F,4 | B,,4 B,,4 | E,4 E,4 | A,,4 G,,4 | F,,4 F,,4 | B,,4 B,,4 | %13
 G,,4 G,,4 | A,,4 A,,4 | B,,4 B,,,4 | E,2 z/ E,/B,,/G,,/ E,, |] %17
V:4
 x3 | G,B,EB, G,B,EB, | A,B,DB, A,B,DB, | A,DFB, A,DFB, | G,B,EB, G,CEC | x8 | x8 | x8 | x8 | x8 | %10
 x8 | x8 | x8 | x8 | x8 | x8 | x5 |] %17

